X: 26108
T: McGettrick's
R: reel
M: 4/4
K: Gmajor
~G3A BA~A2|BGAF ~G3^G|~A3d BA~A2|1 BFAF DEFD:|2 BFAF D3e||
~f3e fded|^cAAB cAAa|~f2ea fded|^cABc ~d3e|
~f3a gfed|^cAAB cded|~f2af gfed|^cAFA DAFD||

